X: 11090
T: Ducks Of Portmahomack, The
R: jig
M: 6/8
K: Emajor
bef gfe|beg age|cec BGB|cec def|
bef gfe|beg age|cec BGE|FGF E3:|
|:BEF GFE|BEG AGE|CEC B,CE|FGB F2E|
[1 EB,C ECE|FEF AGE|B2A G2E|FGF E3:|
[2 EB,C ECE|FEF GAB|cEc dEd|eEe def||

